X: 32765
T: Polska From Enviken
R: three-two
M: 3/2
K: Gminor
M:3/4
Bc/B/ A/B/A/G/ ^F<G|de/d/ c/d/c/B/ c<d|.g.g .d.d .B.B|A/B/A/^F/ G2 D2|
Bc/B/ A/B/A/G/ ^F<G|de/d/ c/d/c/B/ c<d|.g.g .d.d .B.B|A/B/A/^F/ G4||
K:G
{Bc}.d.d .e.e .f.a|ga/g/ fg/f/ ef/e/|dd ee aa|g/a/g/B/ d4|
{Bc}dd .b.b .a.a|cc ab/a/ ga/g/|{cd}cB/c/ ed c/d/c/A/|.F.A .G.B d2|
{Bc}dd bb aa|cc a/b/a/f/ g/a/g/B/|{cB}cB/c/ c/d/c/A/|F2 G2|

